sites/default/files/images/our platform/headings/mobile/Step-1-mobile-heading.svg

<svg width="274" height="139" viewBox="0 0 274 139" fill="none" xmlns="http://www.w3.org/2000/svg">
<rect x="150.008" y="87.9998" width="75" height="6" rx="3" fill="#5684E2"/>
<path d="M53.6934 64.6052C53.6934 74.436 51.6589 81.9555 47.5898 87.1638C43.5208 92.3722 37.5638 94.9763 29.7188 94.9763C21.9714 94.9763 16.0469 92.421 11.9453 87.3103C7.84375 82.1996 5.74414 74.8754 5.64648 65.3376V52.2517C5.64648 42.3233 7.69727 34.7875 11.7988 29.6443C15.9329 24.5011 21.8737 21.9294 29.6211 21.9294C37.3685 21.9294 43.293 24.4848 47.3945 29.5955C51.4961 34.6736 53.5957 41.9815 53.6934 51.5193V64.6052ZM39.582 50.2498C39.582 44.3578 38.7682 40.0772 37.1406 37.408C35.5456 34.7061 33.0391 33.3552 29.6211 33.3552C26.3008 33.3552 23.8431 34.641 22.248 37.2126C20.6855 39.7517 19.8555 43.7393 19.7578 49.1755V66.4607C19.7578 72.255 20.5391 76.5681 22.1016 79.4001C23.6966 82.1996 26.2357 83.5994 29.7188 83.5994C33.1693 83.5994 35.6595 82.2485 37.1895 79.5466C38.7194 76.8448 39.5169 72.7107 39.582 67.1443V50.2498ZM97.541 93.9998H83.4297V39.6052L66.584 44.8298V33.3552L96.0273 22.8083H97.541V93.9998Z" fill="#2B2B2B"/>
<g filter="url(#filter0_d)">
<path d="M56.4102 67.113C56.5924 68.4281 56.9505 69.4112 57.4844 70.0623C58.4609 71.2472 60.1341 71.8396 62.5039 71.8396C63.9232 71.8396 65.0755 71.6833 65.9609 71.3708C67.6406 70.7719 68.4805 69.6586 68.4805 68.031C68.4805 67.0805 68.0638 66.3448 67.2305 65.824C66.3971 65.3162 65.0885 64.8669 63.3047 64.4763L60.2578 63.7927C57.263 63.1156 55.1927 62.38 54.0469 61.5857C52.1068 60.2576 51.1367 58.1807 51.1367 55.3552C51.1367 52.7771 52.0742 50.6352 53.9492 48.9294C55.8242 47.2237 58.5781 46.3708 62.2109 46.3708C65.2448 46.3708 67.8294 47.1781 69.9648 48.7927C72.1133 50.3943 73.2396 52.725 73.3438 55.7849H67.5625C67.4583 54.0531 66.7031 52.8227 65.2969 52.0935C64.3594 51.6117 63.194 51.3708 61.8008 51.3708C60.2513 51.3708 59.0143 51.6833 58.0898 52.3083C57.1654 52.9333 56.7031 53.8057 56.7031 54.9255C56.7031 55.9542 57.1589 56.7224 58.0703 57.2302C58.6562 57.5688 59.9062 57.9659 61.8203 58.4216L66.7812 59.613C68.9557 60.1339 70.5964 60.8305 71.7031 61.7029C73.4219 63.057 74.2812 65.0167 74.2812 67.5818C74.2812 70.212 73.2721 72.3995 71.2539 74.1443C69.2487 75.8761 66.4102 76.7419 62.7383 76.7419C58.9883 76.7419 56.0391 75.8891 53.8906 74.1833C51.7422 72.4646 50.668 70.1078 50.668 67.113H56.4102ZM76.0977 58.8708V54.906H79.0664V48.9685H84.5742V54.906H88.0312V58.8708H84.5742V70.1208C84.5742 70.9932 84.6849 71.5401 84.9062 71.7615C85.1276 71.9698 85.8047 72.074 86.9375 72.074C87.1068 72.074 87.2826 72.074 87.4648 72.074C87.6602 72.061 87.849 72.0479 88.0312 72.0349V76.1951L85.3945 76.2927C82.7643 76.3839 80.9674 75.9281 80.0039 74.9255C79.3789 74.2875 79.0664 73.3044 79.0664 71.9763V58.8708H76.0977ZM100.004 58.7341C98.7148 58.7341 97.7122 59.1378 96.9961 59.9451C96.293 60.7524 95.8503 61.8461 95.668 63.2263H104.32C104.229 61.755 103.78 60.6417 102.973 59.8865C102.178 59.1182 101.189 58.7341 100.004 58.7341ZM100.004 54.1443C101.775 54.1443 103.37 54.4763 104.789 55.1404C106.208 55.8044 107.38 56.8526 108.305 58.2849C109.138 59.5479 109.678 61.0128 109.926 62.6794C110.069 63.656 110.128 65.0623 110.102 66.8982H95.5312C95.6094 69.0336 96.2799 70.531 97.543 71.3904C98.3112 71.9242 99.2357 72.1912 100.316 72.1912C101.462 72.1912 102.393 71.8656 103.109 71.2146C103.5 70.863 103.845 70.3748 104.145 69.7498H109.828C109.685 71.0128 109.027 72.2953 107.855 73.5974C106.033 75.6677 103.48 76.7029 100.199 76.7029C97.4909 76.7029 95.1016 75.8305 93.0312 74.0857C90.9609 72.3409 89.9258 69.5024 89.9258 65.5701C89.9258 61.8852 90.8568 59.0597 92.7188 57.0935C94.5938 55.1274 97.0221 54.1443 100.004 54.1443ZM128.539 65.3552C128.539 63.7146 128.161 62.2628 127.406 60.9998C126.664 59.7367 125.453 59.1052 123.773 59.1052C121.755 59.1052 120.368 60.0623 119.613 61.9763C119.223 62.9919 119.027 64.281 119.027 65.8435C119.027 68.3175 119.685 70.0557 121 71.0583C121.781 71.6443 122.706 71.9373 123.773 71.9373C125.323 71.9373 126.501 71.3383 127.309 70.1404C128.129 68.9425 128.539 67.3474 128.539 65.3552ZM125.375 54.2419C127.862 54.2419 129.965 55.1599 131.684 56.9958C133.415 58.8318 134.281 61.5271 134.281 65.0818C134.281 68.8318 133.435 71.6899 131.742 73.656C130.062 75.6222 127.895 76.6052 125.238 76.6052C123.546 76.6052 122.139 76.182 121.02 75.3357C120.408 74.8669 119.809 74.1833 119.223 73.2849V84.3787H113.715V54.7107H119.047V57.8552C119.646 56.9307 120.284 56.2016 120.961 55.6677C122.198 54.7172 123.669 54.2419 125.375 54.2419ZM162.641 71.7029C165.023 71.7029 166.911 70.824 168.305 69.0662C169.711 67.3083 170.414 64.8083 170.414 61.5662C170.414 58.337 169.711 55.8435 168.305 54.0857C166.911 52.3149 165.023 51.4294 162.641 51.4294C160.258 51.4294 158.357 52.3083 156.938 54.0662C155.518 55.824 154.809 58.324 154.809 61.5662C154.809 64.8083 155.518 67.3083 156.938 69.0662C158.357 70.824 160.258 71.7029 162.641 71.7029ZM176.43 61.5662C176.43 66.7354 174.978 70.6938 172.074 73.4412C169.9 75.6807 166.755 76.8005 162.641 76.8005C158.526 76.8005 155.382 75.6807 153.207 73.4412C150.29 70.6938 148.832 66.7354 148.832 61.5662C148.832 56.2927 150.29 52.3344 153.207 49.6912C155.382 47.4516 158.526 46.3318 162.641 46.3318C166.755 46.3318 169.9 47.4516 172.074 49.6912C174.978 52.3344 176.43 56.2927 176.43 61.5662ZM192.387 54.2029C194.587 54.2029 196.384 54.7823 197.777 55.9412C199.184 57.087 199.887 58.9945 199.887 61.6638V75.9998H194.184V63.0505C194.184 61.9307 194.034 61.0714 193.734 60.4724C193.188 59.3787 192.146 58.8318 190.609 58.8318C188.721 58.8318 187.426 59.6326 186.723 61.2341C186.358 62.0805 186.176 63.1612 186.176 64.4763V75.9998H180.629V54.7498H186V57.8552C186.716 56.7615 187.393 55.9737 188.031 55.4919C189.177 54.6326 190.629 54.2029 192.387 54.2029ZM213.441 58.7341C212.152 58.7341 211.15 59.1378 210.434 59.9451C209.73 60.7524 209.288 61.8461 209.105 63.2263H217.758C217.667 61.755 217.217 60.6417 216.41 59.8865C215.616 59.1182 214.626 58.7341 213.441 58.7341ZM213.441 54.1443C215.212 54.1443 216.807 54.4763 218.227 55.1404C219.646 55.8044 220.818 56.8526 221.742 58.2849C222.576 59.5479 223.116 61.0128 223.363 62.6794C223.507 63.656 223.565 65.0623 223.539 66.8982H208.969C209.047 69.0336 209.717 70.531 210.98 71.3904C211.749 71.9242 212.673 72.1912 213.754 72.1912C214.9 72.1912 215.831 71.8656 216.547 71.2146C216.938 70.863 217.283 70.3748 217.582 69.7498H223.266C223.122 71.0128 222.465 72.2953 221.293 73.5974C219.47 75.6677 216.918 76.7029 213.637 76.7029C210.928 76.7029 208.539 75.8305 206.469 74.0857C204.398 72.3409 203.363 69.5024 203.363 65.5701C203.363 61.8852 204.294 59.0597 206.156 57.0935C208.031 55.1274 210.46 54.1443 213.441 54.1443Z" fill="#59C9FF"/>
</g>
<defs>
<filter id="filter0_d" x="0.667969" y="0.331787" width="272.877" height="138.047" filterUnits="userSpaceOnUse" color-interpolation-filters="sRGB">
<feFlood flood-opacity="0" result="BackgroundImageFix"/>
<feColorMatrix in="SourceAlpha" type="matrix" values="0 0 0 0 0 0 0 0 0 0 0 0 0 0 0 0 0 0 127 0"/>
<feOffset dy="4"/>
<feGaussianBlur stdDeviation="25"/>
<feColorMatrix type="matrix" values="0 0 0 0 1 0 0 0 0 1 0 0 0 0 1 0 0 0 0.25 0"/>
<feBlend mode="normal" in2="BackgroundImageFix" result="effect1_dropShadow"/>
<feBlend mode="normal" in="SourceGraphic" in2="effect1_dropShadow" result="shape"/>
</filter>
</defs>
</svg>

<svg xmlns="http://www.w3.org/2000/svg" width="274" height="139" fill="none"><rect width="75" height="6" x="150.008" y="88" fill="#5684E2" rx="3"/><path fill="#2B2B2B" d="M53.7 64.6c0 9.84-2.04 17.36-6.1 22.56-4.08 5.2-10.04 7.82-17.88 7.82-7.75 0-13.67-2.56-17.77-7.67-4.1-5.1-6.2-12.42-6.3-21.96v-13.1c0-9.92 2.05-17.45 6.15-22.6 4.13-5.14 10.07-7.7 17.82-7.7S43.3 24.47 47.4 29.6c4.1 5.07 6.2 12.38 6.3 21.92v13.1zM39.57 50.26c0-5.9-.8-10.17-2.44-12.84-1.6-2.7-4.1-4.04-7.52-4.04-3.32 0-5.78 1.28-7.37 3.85-1.56 2.55-2.4 6.54-2.5 11.98v17.28c0 5.8.8 10.1 2.35 12.94 1.6 2.8 4.14 4.2 7.62 4.2 3.45 0 5.94-1.35 7.47-4.05 1.52-2.7 2.32-6.84 2.38-12.4v-16.9zM97.54 94h-14.1V39.6l-16.86 5.23V33.36L96.03 22.8h1.5V94z"/><path fill="#59C9FF" d="M56.4 67.1c.2 1.33.55 2.3 1.08 2.96.98 1.2 2.65 1.78 5.02 1.78 1.42 0 2.58-.16 3.46-.47 1.68-.6 2.52-1.7 2.52-3.34 0-.95-.42-1.7-1.25-2.2-.83-.5-2.14-.96-3.93-1.35l-3.04-.7c-3-.66-5.07-1.4-6.2-2.2-1.95-1.32-2.92-3.4-2.92-6.22 0-2.58.93-4.72 2.8-6.43 1.88-1.7 4.64-2.56 8.27-2.56 3.04 0 5.63.8 7.76 2.42 2.15 1.6 3.28 3.93 3.38 6.98h-5.78c-.1-1.73-.86-2.96-2.26-3.7-.94-.47-2.1-.7-3.5-.7-1.55 0-2.8.3-3.7.93-.93.63-1.4 1.5-1.4 2.63 0 1.02.46 1.8 1.37 2.3.6.34 1.84.74 3.75 1.2l4.96 1.18c2.18.53 3.82 1.23 4.92 2.1 1.72 1.36 2.58 3.32 2.58 5.88 0 2.63-1 4.82-3.03 6.56-2 1.74-4.84 2.6-8.5 2.6-3.76 0-6.7-.85-8.86-2.56-2.16-1.72-3.23-4.07-3.23-7.07h5.74zm19.7-8.23V54.9h2.97v-5.93h5.5v5.94h3.46v3.97h-3.46v11.25c0 .87.1 1.42.34 1.64.23.2.9.3 2.04.3.17 0 .34 0 .52 0 .2 0 .4 0 .57-.03v4.17l-2.64.1c-2.64.08-4.43-.37-5.4-1.37-.62-.64-.93-1.63-.93-2.95v-13.1H76.1zm23.9-.14c-1.3 0-2.3.4-3 1.22-.7.8-1.15 1.9-1.33 3.28h8.65c-.1-1.47-.54-2.6-1.35-3.34-.8-.78-1.78-1.17-2.97-1.17zm0-4.6c1.78 0 3.37.35 4.8 1 1.4.67 2.58 1.72 3.5 3.15.84 1.27 1.38 2.73 1.63 4.4.14.98.2 2.38.17 4.22H95.53c.08 2.13.75 3.63 2 4.5.78.52 1.7.8 2.8.8 1.13 0 2.06-.33 2.78-1 .4-.34.75-.83 1.05-1.45h5.68c-.14 1.26-.8 2.55-1.97 3.85-1.83 2.07-4.38 3.1-7.66 3.1-2.7 0-5.1-.87-7.17-2.6-2.07-1.76-3.1-4.6-3.1-8.53 0-3.68.93-6.5 2.8-8.48 1.86-1.97 4.3-2.96 7.27-2.96zm28.54 11.23c0-1.65-.38-3.1-1.13-4.36-.74-1.26-1.95-1.9-3.63-1.9-2.02 0-3.4.96-4.16 2.88-.38 1-.57 2.3-.57 3.86 0 2.48.66 4.22 1.97 5.22.78.58 1.7.88 2.77.88 1.55 0 2.73-.6 3.54-1.8.83-1.2 1.24-2.8 1.24-4.78zm-3.16-11.12c2.48 0 4.6.92 6.3 2.76 1.73 1.83 2.6 4.53 2.6 8.08 0 3.75-.84 6.6-2.54 8.58-1.68 1.96-3.85 2.95-6.5 2.95-1.7 0-3.1-.42-4.22-1.26-.6-.47-1.2-1.16-1.8-2.06v11.1h-5.5V54.7h5.33v3.16c.6-.93 1.23-1.66 1.9-2.2 1.25-.94 2.72-1.42 4.42-1.42zm37.26 17.46c2.38 0 4.27-.88 5.67-2.63 1.4-1.76 2.1-4.26 2.1-7.5 0-3.23-.7-5.73-2.1-7.48-1.4-1.8-3.28-2.67-5.66-2.67-2.38 0-4.28.88-5.7 2.64-1.42 1.75-2.13 4.25-2.13 7.5 0 3.24.72 5.74 2.14 7.5 1.42 1.75 3.32 2.63 5.7 2.63zm13.8-10.13c0 5.17-1.46 9.12-4.37 11.87-2.17 2.24-5.3 3.36-9.43 3.36-4.1 0-7.26-1.12-9.43-3.36-2.9-2.75-4.37-6.7-4.37-11.87 0-5.28 1.46-9.24 4.38-11.88 2.18-2.25 5.33-3.37 9.44-3.37 4.12 0 7.26 1.12 9.43 3.36 2.9 2.63 4.36 6.6 4.36 11.87zm15.95-7.37c2.2 0 3.98.58 5.38 1.74 1.4 1.15 2.1 3.05 2.1 5.72V76h-5.7V63.05c0-1.12-.15-1.98-.45-2.58-.54-1.1-1.58-1.64-3.12-1.64-1.88 0-3.17.8-3.88 2.4-.36.85-.54 1.93-.54 3.25V76h-5.55V54.75H186v3.1c.72-1.1 1.4-1.88 2.03-2.36 1.15-.87 2.6-1.3 4.36-1.3zm21.04 4.53c-1.3 0-2.3.4-3 1.22-.7.8-1.15 1.9-1.34 3.28h8.66c-.1-1.47-.54-2.6-1.35-3.34-.78-.78-1.77-1.17-2.96-1.17zm0-4.6c1.77 0 3.37.35 4.8 1 1.4.67 2.58 1.72 3.5 3.15.84 1.27 1.38 2.73 1.62 4.4.15.98.2 2.38.18 4.22h-14.57c.08 2.13.75 3.63 2 4.5.78.52 1.7.8 2.78.8 1.15 0 2.08-.33 2.8-1 .4-.34.73-.83 1.03-1.45h5.7c-.16 1.26-.8 2.55-2 3.85-1.8 2.07-4.36 3.1-7.64 3.1-2.7 0-5.1-.87-7.17-2.6-2.07-1.76-3.1-4.6-3.1-8.53 0-3.68.92-6.5 2.8-8.48 1.86-1.97 4.3-2.96 7.27-2.96z" filter="url(#a)"/><defs><filter id="a" width="272.877" height="138.047" x=".668" y=".332" filterUnits="userSpaceOnUse" color-interpolation-filters="sRGB"><feFlood flood-opacity="0" result="BackgroundImageFix"/><feColorMatrix in="SourceAlpha" values="0 0 0 0 0 0 0 0 0 0 0 0 0 0 0 0 0 0 127 0"/><feOffset dy="4"/><feGaussianBlur stdDeviation="25"/><feColorMatrix values="0 0 0 0 1 0 0 0 0 1 0 0 0 0 1 0 0 0 0.25 0"/><feBlend in2="BackgroundImageFix" result="effect1_dropShadow"/><feBlend in="SourceGraphic" in2="effect1_dropShadow" result="shape"/></filter></defs></svg>
